!!!!SEGMENT: pl-cz--ii-15--001_morawski-jozef-bernard--mazur.krn
!!!cenid: 18xx:1151
!!!COM: Morawski, Józef Bernard
!!!COM-rismid: pe30040596
!!!CDT: 1809-1859
!!!CNT: Polish
!!!OTL: Mazur
!!!PDT:
!!!AGN: Secular; Mazurka
!!!SMS-siglum: PL-CZ
!!!SMS-shelfmark: II-15
!!!SMS-shelfwork: 001 W
!!!SMS-variant:
!!!SMS-altvar:
!!!NIFC-rismid: 300001522
!!!URL-scan: http://repozytorium.nifc.pl/skany/pl-cz-nut--ii-15
!!!ONB-nifc: UWAGA: części: 1. Mazur (Morawski), 2. Mazur (Szlagórski), 3. Walc 1, 4. Walc 2, 5. Walc 3, 6. Walc 4, 7. Walc 5, 8. Mazur (Studziński), 9. Kotylion (Szlagórski), 10. Gallop (Szlagórski), 11. Mazur (Smacierzyński). UWAGA: dalsza część partii Basso z tyłu okładki
!!!key:
**kern	**kern	**kern	**dynam	**kern	**dynam	**kern	**kern	**kern	**kern
*group3	*group3	*group3	*	*group2	*	*group2	*group1	*group1	*group1
*part8	*part7	*part6	*part6	*part5	*part5	*part4	*part3	*part2	*part1
*staff8	*staff7	*staff6	*	*staff5	*	*staff4	*staff3	*staff2	*staff1
*Iempty	*Ivioln	*Ivioln	*	*Iempty	*	*Icor	*Iclars	*Iclars	*Iflt
*I"Baſso	*I"Violino 2do	*I"Violino Imo	*	*I"Clarino in G.	*	*I"Corno 1mo in D.	*I"Clarinetto 2do in C	*I"Clarinetto 1mo in C.	*I"Flauto Primo
*I'b	*I'vl 2	*I'vl 1	*	*I'clno in G	*	*I'cor 1 in D	*I'cl 2 in C	*I'cl 1 in C	*I'fl 1
*clefF4	*clefG2	*clefG2	*	*clefG2	*	*clefG2	*clefG2	*clefG2	*clefG2
*>[A,A,B,B,A,C,C]	*>[A,A,B,B,A,C,C]	*>[A,A,B,B,A,C,C]	*	*>[A,A,B,B,A,C,C]	*	*>[A,A,B,B,A,C,C]	*>[A,A,B,B,A,C,C]	*>[A,A,B,B,A,C,C]	*>[A,A,B,B,A,C,C]
*>A	*>A	*>A	*	*>A	*	*>A	*>A	*>A	*>A
*	*	*	*	*ITrd3c5	*	*ITrd6c10	*	*	*
*k[f#c#]	*k[f#c#]	*k[f#c#]	*	*k[f#]	*	*k[f#c#]	*k[f#c#]	*k[f#c#]	*k[f#c#]
*D:	*D:	*D:	*	*D:	*	*D:	*D:	*D:	*D:
*M3/8	*M3/8	*M3/8	*	*M3/8	*	*M3/8	*M3/8	*M3/8	*M3/8
=1	=1	=1	=1	=1	=1	=1	=1	=1	=1
*tremolo	*	*	*	*	*	*	*	*	*
*	*tremolo	*	*	*	*	*	*	*	*
8d 8D\L	8a 8f#/L	8ddd\L	ff	8d\L	.	8d\L	8dd\L	8dd\L	8ddd\L
!	!	!	!	!LO:TX:a:i:t=Solo	!	!	!	!	!
8d 8D\	8a 8f#/	8fff#\	.	8f#\	.	8d\	8ff#\	8ff#\	8fff#\
8d 8D\J	8a 8f#/J	8ddd\J	.	8d\J	.	8d\J	8dd\J	8dd\J	8ddd\J
=2	=2	=2	=2	=2	=2	=2	=2	=2	=2
.	.	8qqddd/	.	16qqd/	.	.	.	.	.
8A 8AA\L	8a 8g/L	16.ccc#\LL	.	16c#X/LL	.	8r	8r	8r	16ccc#\LL
.	.	.	.	16B/JJ	.	.	.	.	16bb\JJ
.	.	32bb\JJk	.	.	.	.	.	.	.
8A 8AA\	8a 8g/	8ccc#\L	.	8c#/L	.	8e\L	8ee\L	8aa\L	8ccc#\L
8A 8AA\J	8a 8g/J	8aa\J	.	8A/J	.	8e\J	8ee\J	8aa\J	8aa\J
=3	=3	=3	=3	=3	=3	=3	=3	=3	=3
!	!LO:N:vis=4.	!	!	!	!	!LO:TX:a:t=1	!LO:TX:a:i:t=Solo	!	!
8G\L	8d 8B/L	8bb\L	.	8B/L	.	4.r	8gg\L	8bb\L	8bb\L
8G\	8d 8B/J	8ddd^<\J	.	8d/J	.	.	8bb\J	8ddd\J	8ddd\J
!	!	!	!	!LO:N:vis=8	!	!	!	!	!
8G\J	8d 8c#/	16.ccc#\LL	.	16.c#X/LL	.	.	16.aa\LL	16ccc#\LL	16ccc#\LL
.	.	.	.	.	.	.	.	16bb\JJ	16bb\JJ
!	!	!	!	!LO:N:vis=8	!	!	!	!	!
.	.	32bb\JJk	.	32B/JJk	.	.	32gg\JJk	.	.
*Xtremolo	*	*	*	*	*	*	*	*	*
=4	=4	=4	=4	=4	=4	=4	=4	=4	=4
8D\	8a 8f#/L	8bb\	.	8B/	.	8r	8gg\	8bb\	8bb\
4d 4D\	8a 8f#/	4aa^<\	.	4A/	.	8d\L	4ff#\	4aa\	4aa\
.	8a 8f#/J	.	.	.	.	8d\J	.	.	.
=5	=5	=5	=5	=5	=5	=5	=5	=5	=5
4AA/	8a 8g/L	16.gg\LL	.	8r	.	8r	16ee\LL	16gg\LL	16gg\LL
.	.	.	.	.	.	.	16gg\JJ	16bb\JJ	16bb\JJ
.	.	32bb\JJk	.	.	.	.	.	.	.
.	8a 8g/	4ee^<\	.	8A/L	f	8e\L	4cc#\	4ee\	4eee\
8r	8a 8g/J	.	.	8A/J	.	8e\J	.	.	.
=6	=6	=6	=6	=6	=6	=6	=6	=6	=6
!	!	!LO:LB:g=original	!	!	!	!	!	!	!LO:LB:g=original
4D\	8a 8f#/L	16.ff#\LL	.	8r	.	8r	16dd\LL	16ff#\LL	16fff#\LL
.	.	.	.	.	.	.	16ff#\JJ	16aa\JJ	16aaa\JJ
.	.	32aa\JJk	.	.	.	.	.	.	.
.	8a 8f#/	4dd^<\	.	8D/L	.	8d\L	4a/	4dd\	4ddd\
8r	8a 8f#/J	.	.	8D/J	.	8d\J	.	.	.
=7	=7	=7	=7	=7	=7	=7	=7	=7	=7
!	!	!	!	!	!	!	!	!LO:LB:g=original	!
4AA/	8a 8g/L	16.cc#\LL	.	8r	.	8r	8r	8r	16ccc#\LL
.	.	.	.	.	.	.	.	.	16eee\JJ
.	.	32ee\JJk	.	.	.	.	.	.	.
.	8a 8g/	8a\L	.	8A/L	.	8e\L	8ee\L	8gg\L	8aa\L
8r	8a 8g/J	16b\L	.	8A/J	.	8e\J	8ee\J	8gg\J	16bb\L
.	.	16cc#\JJ	.	.	.	.	.	.	16ccc#\JJ
=8	=8	=8	=8	=8	=8	=8	=8	=8	=8
4D\	8a 8f#/L	16.dd\LL	.	8r	.	8r	8r	8r	8ddd\
.	.	32ff#\K	.	.	.	.	.	.	.
.	8a 8f#/	16.aa\	.	8D/L	.	8d\L	8dd\L	8aa\L	8r
.	.	32gg#X\K	.	.	.	.	.	.	.
8r	8a 8f#/J	16.bb\	.	8D/J	.	8d\J	8dd\J	8aa\J	8r
.	.	32aa\JJk	.	.	.	.	.	.	.
=9	=9	=9	=9	=9	=9	=9	=9	=9	=9
!LO:LB:g=original	!	!	!	!LO:LB:g=original	!	!	!LO:LB:g=original	!	!LO:TX:a:t=4
4AA/	8a 8e/L	16.gg\LL	.	8r	.	8r	16.ee\LL	16.gg\LL	4.r
.	.	32bb\K	.	.	.	.	32gg\K	32bb\K	.
.	8a 8e/	16.aa#X\	.	8A/L	.	8e\L	16.ff#\	16.aa#X\	.
.	.	32bb\K	.	.	.	.	32gg\K	32bb\K	.
8r	8a 8e/J	16.gg\	.	8A/J	.	8e\J	16.ee\	16.gg\	.
.	.	32ee\JJk	.	.	.	.	32cc#\JJk	32ee\JJk	.
=10	=10	=10	=10	=10	=10	=10	=10	=10	=10
8D\	8a 8f#/L	16.ff#\LL	.	16r	.	8r	16.dd\LL	16.ff#\LL	4.r
.	.	.	.	16D/LL	.	.	.	.	.
.	.	32aa\K	.	.	.	.	32ff#\K	32aa\K	.
8r	8a 8f#/	16.gg#X\	.	16D/	.	8d\L	16.ee#X\	16.gg#X\	.
.	.	.	.	16D/JJ	.	.	.	.	.
.	.	32aa\K	.	.	.	.	32ff#\K	32aa\K	.
8r	8a 8f#/J	16.ee\	.	8D/	.	8d\J	16.dd\	16.ff#\	.
.	.	32cc#\JJk	.	.	.	.	32a\JJk	32dd\JJk	.
=11	=11	=11	=11	=11	=11	=11	=11	=11	=11
!	!LO:LB:g=original	!LO:LB:g=original	!	!	!	!LO:LB:g=original	!	!	!
4AA/	8a 8g/L	16.ee\LL	.	8r	.	8r	16.cc#\LL	16.ee\LL	4.r
.	.	32gg\K	.	.	.	.	32ee\K	32gg\K	.
.	8a 8g/	16.ff#\	.	8A/L	.	8e\L	16.dd#X\	16.ff#\	.
.	.	32gg\K	.	.	.	.	32ee\K	32gg\K	.
8r	8a 8g/J	16.ee\	.	8A/J	.	8e\J	16.cc#\	16.ee\	.
.	.	32cc#\JJk	.	.	.	.	32a\JJk	32cc#\JJk	.
=12	=12	=12	=12	=12	=12	=12	=12	=12	=12
!	!	!	!	!	!	!	!	!	!LO:TX:a:i:t=Fine
8D\	8a 8f#/	8dd\	.	8D/	.	8d\	8a/	8dd\	4.r
!LO:TX:a:i:t=Fine	!LO:TX:a:i:t=Fine	!LO:TX:a:i:t=Fine	!	!LO:TX:a:i:t=Fine	!	!LO:TX:a:i:t=Fine	!LO:TX:a:i:t=Fine	!LO:TX:a:i:t=Fine	!
4d\ 4D\	4a 4f#/	4ddd\	.	4D/	.	4d\	4a/	4dd\	.
=13:|!|:	=13:|!|:	=13:|!|:	=13:|!|:	=13:|!|:	=13:|!|:	=13:|!|:	=13:|!|:	=13:|!|:	=13:|!|:
*>B	*>B	*>B	*	*>B	*	*>B	*>B	*>B	*>B
!	!	!	!	!LO:TX:a:t=1	!	!LO:TX:a:t=1	!LO:TX:a:t=4	!LO:TX:a:t=4	!
4E\	8e 8B/L	8e/	.	4.r	.	4.r	4.r	4.r	8ee\L
.	8e 8B/	8.b^/L	.	.	.	.	.	.	8.bb\
8r	8e 8B/J	.	.	.	.	.	.	.	.
.	.	16g#X/Jk	.	.	.	.	.	.	16gg#X\Jk
=14	=14	=14	=14	=14	=14	=14	=14	=14	=14
4AA/	8e 8c#/	8a/	.	8A/	.	8e\	4.r	4.r	8aa\
.	4e 4c#/	4cc# 4a^/	.	4A/	.	4e\	.	.	4ccc#\
8A\	.	.	.	.	.	.	.	.	.
=15	=15	=15	=15	=15	=15	=15	=15	=15	=15
!	!	!	!	!LO:TX:a:t=1	!	!LO:TX:a:t=1	!	!	!
4E\	8e 8B/L	16.b\LL	.	4.r	.	4.r	4.r	4.r	16bb\LL
.	.	.	.	.	.	.	.	.	16ccc#\
.	.	32cc#\K	.	.	.	.	.	.	.
.	.	16qqee/	.	.	.	.	.	.	.
.	8e 8B/	16.dd\	.	.	.	.	.	.	16ddd\
.	.	.	.	.	.	.	.	.	16ccc#\
.	.	32cc#\K	.	.	.	.	.	.	.
8r	8e 8B/J	16.dd\	.	.	.	.	.	.	16ddd\
.	.	.	.	.	.	.	.	.	16fff#\JJ
.	.	32ff#\JJk	.	.	.	.	.	.	.
=16	=16	=16	=16	=16	=16	=16	=16	=16	=16
!	!	!	!	!	!	!	!	!	!LO:LB:g=original
8AA/	8e 8c#/	8ee\	.	8A/	.	8e\	4.r	4.r	8eee\
4A 4AA\	4e 4c#/	4ccc# 4ee^<\	.	4A/	.	4e\	.	.	4ccc#\
=17	=17	=17	=17	=17	=17	=17	=17	=17	=17
!	!	!LO:LB:g=original	!	!	!	!	!	!	!
!	!	!LO:TUP:a	!	!LO:TX:a:t=1	!	!LO:TX:a:t=3	!	!LO:LB:g=original	!LO:TUP:a:problem:klamra łukowa
4E\	8e 8B/L	24ddd\LL	.	4.r	.	4.r	8r	8r	24ddd\LL
.	.	24eee\	.	.	.	.	.	.	24eee\
.	.	24ddd\JJ	.	.	.	.	.	.	24ddd\JJ
.	8e 8B/	8bb^<\L	.	.	.	.	8ee\L	8gg#X\L	8.bb\L
8r	8e 8B/J	8ddd\J	.	.	.	.	8ee\J	8gg#\J	.
.	.	.	.	.	.	.	.	.	16ddd\Jk
=18	=18	=18	=18	=18	=18	=18	=18	=18	=18
4AA/	8e 8c#/L	16eee\LL	.	8r	.	4.r	8r	8r	16eee\LL
.	.	16ccc#\JJ	.	.	.	.	.	.	16ccc#\JJ
.	8e 8c#/	4aa^<\	.	8A/L	.	.	8cc#\L	8aa\L	4aa\
8r	8e 8c#/J	.	.	8A/J	.	.	8cc#\J	8aa\J	.
=19	=19	=19	=19	=19	=19	=19	=19	=19	=19
!LO:LB:g=original	!	!	!	!	!	!	!	!	!
4E\	8e 8B/L	16.gg#X\LL	.	4.r	.	4.r	8r	8r	16.gg#LL
.	.	32ff#\K	.	.	.	.	.	.	32ff#
.	8e 8B/	16.gg#\	.	.	.	.	8dd\L	8ee\L	16.gg#
.	.	32ee\K	.	.	.	.	.	.	32ee
8r	8e 8B/J	16.ff#\	.	.	.	.	8dd\J	8ee\J	16.ff#
.	.	32gg#\JJk	.	.	.	.	.	.	32gg#JJ
=20	=20	=20	=20	=20	=20	=20	=20	=20	=20
!	!	!	!	!LO:TX:b:i:t=D.C.Mazur	!	!	!	!	!
8A\	8e 8c#/	8aa\	.	8A/	.	8e\	8cc#\	8ee\	8aa
!LO:TX:a:i:t=D.C.Mazur	!LO:TX:b:i:t=D.C.Mazur	!LO:TX:b:i:t=D.C.Mazur	!	!	!	!LO:TX:b:i:t=D.C.Mazur	!LO:TX:b:i:t=D.C.Mazur	!LO:TX:b:i:t=D.C.Ma	!
4A 4AA\	4e 4c#/	4aa\	.	4A/	.	4e\	4cc#\	4ee\	4aa
=21:|!|:	=21:|!|:	=21:|!|:	=21:|!|:	=21:|!|:	=21:|!|:	=21:|!|:	=21:|!|:	=21:|!|:	=21:|!|:
*>C	*>C	*>C	*	*>C	*	*>C	*>C	*>C	*>C
*k[f#]	*k[f#]	*k[f#]	*	*k[f#]	*	*k[f#]	*k[f#]	*k[f#]	*k[f#]
!LO:TX:t=P:problem:przy zmianie tonacji kasownik Cn	!	!	!	!LO:LB:g=original	!	!	!LO:LB:g=original	!	!
!	!LO:TX:t=P:problem:przy zmianie tonacji kasownik ccn	!	!	!LO:TX:a:t=4	!	!LO:TX:a:t=8	!LO:TX:a:i:t=Solo	!	!
4G\	8d 8B/L	16.bn\LL	.	4.r	.	4.r	16.g/LL	16.bn/LL	16bbLL
.	.	.	.	.	.	.	.	.	16aaJJ
.	.	32a\JJk	.	.	.	.	32f#/JJk	32a/JJk	.
.	8d 8B/	8b^<\L	.	.	.	.	8.g/L	8.b\L	8bbLL
8r	8d 8B/J	8ccn\J	.	.	.	.	.	.	8cccnJJ
.	.	.	.	.	.	.	16a/Jk	16ccn\Jk	.
=22	=22	=22	=22	=22	=22	=22	=22	=22	=22
!	!	!	!	!	!	!	!	!	!LO:LB:g=original
4G\	8d 8B/L	16.dd\LL	.	4.r	.	4.r	16.b/LL	16.dd\LL	16dddLL
.	.	.	.	.	.	.	.	.	16ccc#JJ
.	.	32cc#X\JJk	.	.	.	.	32a#X/JJk	32cc#X\JJk	.
.	8d 8B/	4dd^<\	.	.	.	.	4b/	4dd\	4ddd
8r	8d 8B/J	.	.	.	.	.	.	.	.
=23	=23	=23	=23	=23	=23	=23	=23	=23	=23
!	!	!LO:LB:g=original	!	!	!	!	!	!	!
4C/	8e 8c/L	16.gg\LL	.	4.r	.	4.r	16.ee\LL	16.gg\LL	16gggLL
.	.	.	.	.	.	.	.	.	16fff#JJ
.	.	32ff#\JJk	.	.	.	.	32dd#X\JJk	32ff#X\JJk	.
.	8e 8c/	4gg^<\	.	.	.	.	4ee\	4gg\	4ggg
8r	8e 8c/J	.	.	.	.	.	.	.	.
=24	=24	=24	=24	=24	=24	=24	=24	=24	=24
!	!	!	!	!	!	!	!	!LO:N:vis=8	!
4G\	8d 8B/L	16.dd\LL	.	4.r	.	4.r	16.b/LL	16dd\LL	16dddLL
!	!	!	!	!	!	!	!	!LO:N:vis=8	!
.	.	.	.	.	.	.	.	16cc#X\JJk	16ccc#JJ
.	.	32cc#X\JJk	.	.	.	.	32a#X/JJk	.	.
.	8d 8B/	4dd^<\	.	.	.	.	4b/	4dd\	4ddd
8r	8d 8B/J	.	.	.	.	.	.	.	.
=25	=25	=25	=25	=25	=25	=25	=25	=25	=25
!	!	!	!	!LO:TX:a:i:t=Solo	!	!	!LO:TX:a:t=4	!LO:TX:a:t=4	!
8D\	8a 8f#/	8d/	.	8D/	.	4.r	4.r	4.r	8dd
4d 4D\	4a 4f#/	4a 4d^>/	.	4A/	.	.	.	.	4aa
=26	=26	=26	=26	=26	=26	=26	=26	=26	=26
8G\	8d 8B/	8g/	.	8G/	.	4.r	4.r	4.r	8gg
4G\	4d 4B/	4gg 4b^\	.	4g\	.	.	.	.	4ggg
=27	=27	=27	=27	=27	=27	=27	=27	=27	=27
4D\	8d 8c/L	16.ee\LL	.	16e/LL	.	4.r	4.r	4.r	16.eeeLL
.	.	.	.	16d/	.	.	.	.	.
.	.	32dd\K	.	.	.	.	.	.	32ddd
.	8d 8c/	16.ccn\	.	16c/	.	.	.	.	16.cccn
.	.	.	.	16B/	.	.	.	.	.
.	.	32b\K	.	.	.	.	.	.	32bb
8r	8d 8c/J	16.cc\	.	16c/	.	.	.	.	16.ccc
.	.	.	.	16A/JJ	.	.	.	.	.
.	.	32a\JJk	.	.	.	.	.	.	32aaJJ
*	*Xtremolo	*	*	*	*	*	*	*	*
=28	=28	=28	=28	=28	=28	=28	=28	=28	=28
8G\	8d 8B/	8g/	.	8G/	.	4.r	4.r	4.r	8gg
4G\	4d 4B/	4gg^<\	.	4g\	.	.	.	.	4ggg
=:|!	=:|!	=:|!	=:|!	=:|!	=:|!	=:|!	=:|!	=:|!	=:|!
*-	*-	*-	*-	*-	*-	*-	*-	*-	*-
!!!system-decoration: ([g1][g2][g3])
!!!AIN: 2 clars 1 cor 2 empty 1 flt 2 violn
!!!ENC: Tomasz Grochalski
!!!END: 2020-11-06
!!!ENC: Kamil Watkowski
!!!END: 2021-10-29
!!!RDF**kern: > = above
!!!RDF**kern: < = below
